X: 2287
M: 6/8
L: 1/8
K: G
|: {c}\
|:\
def g2g | f2f e2e | def g2g | f2f edB |\
def g2g | f2f e2e | dBA ABd | efe edB :|


